X:73
T:George and Vie's Hornpipe
R:hp
C:Bruce Osborne  --  Mar. 1997
Z:abc by bosborne@kos.net
M:4/4
L:1/8
K:A
af|e2 cB ABAF|EFAB c2 BA|GBEG BEGB|ABcf e2 af|\
e2 cB ABAF|EFAB c2 BA|GBEG BEGB|AcBG A2:|
|:eg|a2 ag a2 gf|efed c2 BA|GBEG BEGB|AFEC A,2 eg|\
a2 ag a2 gf|efed c2 BA|GBEG BEGB|AcBG A2:|
